dist/icons/external-link.svg

<?xml version="1.0" encoding="utf-8"?>
<!-- Generated by IcoMoon.io -->
<!DOCTYPE svg PUBLIC "-//W3C//DTD SVG 1.1//EN" "http://www.w3.org/Graphics/SVG/1.1/DTD/svg11.dtd">
<svg version="1.1" xmlns="http://www.w3.org/2000/svg" xmlns:xlink="http://www.w3.org/1999/xlink" width="32" height="32" viewBox="0 0 32 32">
<path d="M6 2v24h24v-24h-24zM28 24h-20v-20h20v20zM4 28v-20l-2-2v24h24l-2-2zM13.414 21.414l6-6 4.586 4.586v-12h-12l4.586 4.586-6 6z"></path>
</svg>

<svg xmlns="http://www.w3.org/2000/svg" width="32" height="32" viewBox="0 0 32 32"><path d="M6 2v24h24V2H6zm22 22H8V4h20v20zM4 28V8L2 6v24h24l-2-2zm9.414-6.586l6-6L24 20V8H12l4.586 4.586-6 6z"/></svg>
